svg/icon/tix.svg

<svg height="32" viewBox="0 0 32 32" width="32" xmlns="http://www.w3.org/2000/svg" xmlns:xlink="http://www.w3.org/1999/xlink"><defs><linearGradient id="a" x1="50%" x2="50%" y1="0%" y2="100%"><stop offset="0" stop-color="#fff" stop-opacity=".5"/><stop offset="1" stop-opacity=".5"/></linearGradient><circle id="b" cx="16" cy="15" r="15"/><filter id="c" height="111.7%" width="111.7%" x="-5.8%" y="-4.2%"><feOffset dy=".5" in="SourceAlpha" result="shadowOffsetOuter1"/><feGaussianBlur in="shadowOffsetOuter1" result="shadowBlurOuter1" stdDeviation=".5"/><feComposite in="shadowBlurOuter1" in2="SourceAlpha" operator="out" result="shadowBlurOuter1"/><feColorMatrix in="shadowBlurOuter1" values="0 0 0 0 0   0 0 0 0 0   0 0 0 0 0  0 0 0 0.199473505 0"/></filter><path id="d" d="m6 10.3864717c.00000094-.2134992.17307699-.38657369.38657618-.38657275v.00010105c1.84363749.0000081 3.51832143.0000122 5.02405182.0000122 2.3188406 0 3.768116 1.1955364 3.768116 2.8846119 0 .7051273-.3220612 1.3461522-.9661836 1.9230745.9017713.5128199 1.352657 1.2820498 1.352657 2.3076895 0 2.4038433-2.3188406 2.8846119-3.8647343 2.8846119-1.77133656 0-3.54267312 0-5.31400967 0-.21344338 0-.38647343-.17303-.38647343-.3864734v-1.1501278c0-.2134433.17303005-.3864734.38647343-.3864734h5.31400967c1.095008 0 1.6425121-.3525637 1.6425121-1.057691s-.5475041-1.0897423-1.6425121-1.1538447h-5.31400967c-.21344338 0-.38647343-.1730301-.38647343-.3864735v-1.1501277c0-.2134434.17303005-.3864734.38647343-.3864734h5.31400967c.7729469-.128205 1.1594203-.4487174 1.1594203-.9615373 0-.7051274-.3864734-1.057691-1.1594203-1.057691h-5.31400967c-.21344338 0-.38647343-.1730301-.38647343-.3864735v-1.1501399zm10.4347826.0000139c0-.2134434.1730301-.3864734.3864734-.3864734h5.120773c.2134434 0 .3864734.17303.3864734.3864734v9.227041c0 .2134434-.17303.3864734-.3864734.3864734h-1.4492754c-.2134434 0-.3864734-.17303-.3864734-.3864734v-7.3039664c0-.2134434-.1730301-.3864734-.3864734-.3864734h-2.8985508c-.2134433 0-.3864734-.1730301-.3864734-.3864735zm7.2463768-.3864734h1.9323672c.2134434 0 .3864734.17303.3864734.3864734v1.1501277c0 .2134434-.17303.3864735-.3864734.3864735h-1.9323672c-.2134434 0-.3864734-.1730301-.3864734-.3864735v-1.1501277c0-.2134434.17303-.3864734.3864734-.3864734z"/><filter id="e" height="135%" width="117.5%" x="-8.8%" y="-12.5%"><feOffset dy=".5" in="SourceAlpha" result="shadowOffsetOuter1"/><feGaussianBlur in="shadowOffsetOuter1" result="shadowBlurOuter1" stdDeviation=".5"/><feColorMatrix in="shadowBlurOuter1" values="0 0 0 0 0   0 0 0 0 0   0 0 0 0 0  0 0 0 0.204257246 0"/></filter></defs><g fill="none" fill-rule="evenodd"><g fill-rule="nonzero"><use fill="#000" filter="url(#c)" xlink:href="#b"/><use fill="#ef494d" fill-rule="evenodd" xlink:href="#b"/><use fill="url(#a)" fill-rule="evenodd" xlink:href="#b"/><circle cx="16" cy="15" r="14.5" stroke="#000" stroke-opacity=".097"/></g><use fill="#000" filter="url(#e)" xlink:href="#d"/><use fill="#fff" xlink:href="#d"/></g></svg>

<svg xmlns="http://www.w3.org/2000/svg" xmlns:xlink="http://www.w3.org/1999/xlink" width="32" height="32" viewBox="0 0 32 32">
  <defs>
    <linearGradient id="tix-c" x1="50%" x2="50%" y1="0%" y2="100%">
      <stop offset="0%" stop-color="#FFF" stop-opacity=".5"/>
      <stop offset="100%" stop-opacity=".5"/>
    </linearGradient>
    <circle id="tix-b" cx="16" cy="15" r="15"/>
    <filter id="tix-a" width="111.7%" height="111.7%" x="-5.8%" y="-4.2%" filterUnits="objectBoundingBox">
      <feOffset dy=".5" in="SourceAlpha" result="shadowOffsetOuter1"/>
      <feGaussianBlur in="shadowOffsetOuter1" result="shadowBlurOuter1" stdDeviation=".5"/>
      <feComposite in="shadowBlurOuter1" in2="SourceAlpha" operator="out" result="shadowBlurOuter1"/>
      <feColorMatrix in="shadowBlurOuter1" values="0 0 0 0 0   0 0 0 0 0   0 0 0 0 0  0 0 0 0.199473505 0"/>
    </filter>
    <path id="tix-e" d="M6,10.3864717 C6.00000094,10.1729725 6.17307699,9.99989801 6.38657618,9.99989895 L6.38657618,10 C8.23021367,10.0000081 9.90489761,10.0000122 11.410628,10.0000122 C13.7294686,10.0000122 15.178744,11.1955486 15.178744,12.8846241 C15.178744,13.5897514 14.8566828,14.2307763 14.2125604,14.8076986 C15.1143317,15.3205185 15.5652174,16.0897484 15.5652174,17.1153881 C15.5652174,19.5192314 13.2463768,20 11.7004831,20 C9.92914654,20 8.15780998,20 6.38647343,20 C6.17303005,20 6,19.82697 6,19.6135266 L6,18.4633988 C6,18.2499555 6.17303005,18.0769254 6.38647343,18.0769254 L11.7004831,18.0769254 C12.7954911,18.0769254 13.3429952,17.7243617 13.3429952,17.0192344 C13.3429952,16.3141071 12.7954911,15.9294921 11.7004831,15.8653897 L6.38647343,15.8653897 C6.17303005,15.8653897 6,15.6923596 6,15.4789162 L6,14.3287885 C6,14.1153451 6.17303005,13.9423151 6.38647343,13.9423151 L11.7004831,13.9423151 C12.47343,13.8141101 12.8599034,13.4935977 12.8599034,12.9807778 C12.8599034,12.2756504 12.47343,11.9230868 11.7004831,11.9230868 L6.38647343,11.9230868 C6.17303005,11.9230868 6,11.7500567 6,11.5366133 L6,10.3864734 Z M16.4347826,10.3864856 C16.4347826,10.1730422 16.6078127,10.0000122 16.821256,10.0000122 L21.942029,10.0000122 C22.1554724,10.0000122 22.3285024,10.1730422 22.3285024,10.3864856 L22.3285024,19.6135266 C22.3285024,19.82697 22.1554724,20 21.942029,20 L20.4927536,20 C20.2793102,20 20.1062802,19.82697 20.1062802,19.6135266 L20.1062802,12.3095602 C20.1062802,12.0961168 19.9332501,11.9230868 19.7198068,11.9230868 L16.821256,11.9230868 C16.6078127,11.9230868 16.4347826,11.7500567 16.4347826,11.5366133 L16.4347826,10.3864856 Z M23.6811594,10.0000122 L25.6135266,10.0000122 C25.82697,10.0000122 26,10.1730422 26,10.3864856 L26,11.5366133 C26,11.7500567 25.82697,11.9230868 25.6135266,11.9230868 L23.6811594,11.9230868 C23.467716,11.9230868 23.294686,11.7500567 23.294686,11.5366133 L23.294686,10.3864856 C23.294686,10.1730422 23.467716,10.0000122 23.6811594,10.0000122 Z"/>
    <filter id="tix-d" width="117.5%" height="135%" x="-8.8%" y="-12.5%" filterUnits="objectBoundingBox">
      <feOffset dy=".5" in="SourceAlpha" result="shadowOffsetOuter1"/>
      <feGaussianBlur in="shadowOffsetOuter1" result="shadowBlurOuter1" stdDeviation=".5"/>
      <feColorMatrix in="shadowBlurOuter1" values="0 0 0 0 0   0 0 0 0 0   0 0 0 0 0  0 0 0 0.204257246 0"/>
    </filter>
  </defs>
  <g fill="none" fill-rule="evenodd">
    <g fill-rule="nonzero">
      <use fill="#000" filter="url(#tix-a)" xlink:href="#tix-b"/>
      <use fill="#EF494D" fill-rule="evenodd" xlink:href="#tix-b"/>
      <use fill="url(#tix-c)" fill-rule="evenodd" style="mix-blend-mode:soft-light" xlink:href="#tix-b"/>
      <circle cx="16" cy="15" r="14.5" stroke="#000" stroke-opacity=".097"/>
    </g>
    <use fill="#000" filter="url(#tix-d)" xlink:href="#tix-e"/>
    <use fill="#FFF" xlink:href="#tix-e"/>
  </g>
</svg>
